X: 1
T: Patrick's
M: 4/4
L: 1/8
R: reel
K: Dmaj
|: dB |\ 
AD F/E/D ADBD | ADFD ED B,/C/D | BE E/^D/E BEdE | BE^DE BAFB |
AD F/E/D ADBD | AD F/E/D EDB,D | A,^G,A,B, D2 E/F/=G | ABde fe :|
|: dB |\ 
Ad d/c/d Adfd | Ad d/c/d ed B/c/d | eB B/^A/B eBgB | eB B/^A/B fedB |
Adcd A2 f/e/d | Ad d/c/d edBd | e/f/g fe dcdB | ABde f2 :|
